!!!COM: Palestrina, Giovanni Perluigi da
!!!OPR: In festis Apostolorum (II)
!!!OTL: Agnus
**kern	**kern	**kern	**kern	**kern
*Ibass	*Itenor	*Itenor	*Icalto	*Icant
!Bassus	!Tenor 2	!Tenor 1	!Altus	!Cantus
*clefF4	*clefGv2	*clefGv2	*clefG2	*clefG2
*k[]	*k[]	*k[]	*k[]	*k[]
*D:dor	*D:dor	*D:dor	*D:dor	*D:dor
*M4/2	*M4/2	*M4/2	*M4/2	*M4/2
=1	=1	=1	=1	=1
0r	0r	2.G	0r	0d
.	.	4A	.	.
.	.	4B	.	.
.	.	4c	.	.
.	.	[2d	.	.
=2	=2	=2	=2	=2
0r	2.A	2d]	0r	0e
.	.	2c	.	.
.	4B	.	.	.
.	4c	2A	.	.
.	4d	.	.	.
.	[2e	[2c	.	.
=3	=3	=3	=3	=3
0r	2e]	2c]	1r	0g
.	2d	2B	.	.
.	2B	2G	1d	.
.	[2d	2B	.	.
=4	=4	=4	=4	=4
0r	2d]	1A	1e	0a
.	2c#	.	.	.
.	2d	2D	[1f	.
.	4D	[2d	.	.
.	4E	.	.	.
=5	=5	=5	=5	=5
0r	4F	2d]	2f]	0a
.	4G	.	.	.
.	1A	4c#	4e	.
.	.	4B	4d	.
.	.	2c#	2e	.
.	2D	[2d	2f	.
=6	=6	=6	=6	=6
0r	0G	4d]	1.g	0b-
.	.	4c	.	.
.	.	2d	.	.
.	.	4e	.	.
.	.	4d	.	.
.	.	[2d	2f	.
=7	=7	=7	=7	=7
0r	0A	2d]	0e	[0a
.	.	4c#	.	.
.	.	4B	.	.
.	.	1c#	.	.
=8	=8	=8	=8	=8
2.D	1F	1d	0A	0a]
4E	.	.	.	.
4F	2D	1r	.	.
4G	.	.	.	.
[2A	2F	.	.	.
=9	=9	=9	=9	=9
2A]	2.E	2r	0B	0r
2G	.	1e	.	.
.	4F	.	.	.
2E	1G	.	.	.
[2G	.	4d	.	.
.	.	4c	.	.
=10	=10	=10	=10	=10
2G]	1D	2B	0d	0r
2F#	.	2A	.	.
[1G	2r	1B	.	.
.	4G	.	.	.
.	4A	.	.	.
=11	=11	=11	=11	=11
1G]	4B	4G	0d	2r
.	4c	4A	.	.
.	2d	4B	.	4d
.	.	4c	.	4e
1r	2D	4d	.	4f
.	.	4c	.	4g
.	2F	4A	.	[2a
.	.	4B	.	.
=12	=12	=12	=12	=12
2r	2.E	2c	0e	2a]
2E	.	2B	.	2g
.	4F	.	.	.
1C	1G	2.c	.	2e
.	.	.	.	[2g
.	.	4B	.	.
=13	=13	=13	=13	=13
1D	1r	1A	0d	2g]
.	.	.	.	2f#
1GG	2r	1B	.	4g
.	.	.	.	4a
.	[2d	.	.	4b
.	.	.	.	4cc
=14	=14	=14	=14	=14
1G	2d]	1r	0r	4b
.	.	.	.	4a
.	2.e	.	.	4g
.	.	.	.	4f
2.A	.	1c	.	1e
.	4d	.	.	.
.	4c	.	.	.
4G	4B	.	.	.
=15	=15	=15	=15	=15
4F	4A	2.d	0r	0r
4E	4G	.	.	.
1D	1F	.	.	.
.	.	4c	.	.
.	.	2B	.	.
2C	2E	[2A	.	.
=16	=16	=16	=16	=16
1BB	1D	2A]	1r	1r
.	.	2G#	.	.
1AA	1E	[1A	1e	1cc
=17	=17	=17	=17	=17
0r	1D	2A]	2.f	2.dd
.	.	2F	.	.
.	.	.	4e	4cc
.	1r	2G	2d	2b
.	.	2A	2c	[2a
=18	=18	=18	=18	=18
1E	0r	2.e	1B	2a]
.	.	.	.	2g#
.	.	4d	.	.
2.F	.	4c	[1A	[1a
.	.	4B	.	.
.	.	4A	.	.
4E	.	4G	.	.
=19	=19	=19	=19	=19
2D	1r	2F	1A]	1a]
2C	.	2E	.	.
1BB	1G	1D	2r	1b
.	.	.	2d	.
=20	=20	=20	=20	=20
1AA	2.A	2E	4c	2.cc
.	.	.	4B	.
.	.	1A	4A	.
.	4G	.	4B	4b
1r	2F	.	4c	2a
.	.	.	4d	.
.	[2E	2B	2e	2g
=21	=21	=21	=21	=21
0r	2E]	2c	2A	1f
.	2D	2d	2A	.
.	1E	1B	2A	1e
.	.	.	2G#	.
=22	=22	=22	=22	=22
1D	1F	1d	1A	2r
.	.	.	.	2a
2.GG	1G	[1d	[1B-	1g
4AA	.	.	.	.
=23	=23	=23	=23	=23
1BB-	1D	1d]	1B-]	1f
[1FF	[1F	1c	2A	[1a
.	.	.	4F	.
.	.	.	4G	.
=24	=24	=24	=24	=24
1FF]	2F]	1C	4A	1a]
.	.	.	4B	.
.	2E	.	1c	.
1GG	1D	1G	.	1g
.	.	.	2B	.
=25	=25	=25	=25	=25
0C	1C	2.E	2c	1r
.	.	.	2.g	.
.	.	4F	.	.
.	2r	1G	.	1e
.	.	.	4f	.
.	[2c	.	[2e	.
=26	=26	=26	=26	=26
0r	2c]	1r	2e]	1g
.	2B	.	2d	.
.	2A	2r	2e	1a
.	2F	[2c	2f	.
=27	=27	=27	=27	=27
0r	1G	2c]	1d	1g
.	.	2B	.	.
.	2r	2A	1c	2f
.	[2c	2A	.	[2e
=28	=28	=28	=28	=28
1r	2c]	2.G	0r	2e]
.	2B	.	.	1d
.	.	4F	.	.
2r	2.G	1E	.	.
[2G	.	.	.	2c
.	4A	.	.	.
=29	=29	=29	=29	=29
2G]	2B	1D	1r	1d
2F	2.A	.	.	.
1E	.	1r	1B	1r
.	4G	.	.	.
.	[2G	.	.	.
=30	=30	=30	=30	=30
1D	2G]	1A	1d	0r
.	2F	.	.	.
2r	2E	2B	1e	.
[2G	2C	2c	.	.
=31	=31	=31	=31	=31
2G]	1D	1A	1d	0r
2F	.	.	.	.
2E	2r	1G	2c	.
2E	[2G	.	[2B	.
=32	=32	=32	=32	=32
2.D	2G]	1A	2B]	1r
.	2F	.	1A	.
4C	.	.	.	.
1BB	1D	1r	.	2r
.	.	.	2G#	[2dd
=33	=33	=33	=33	=33
1AA	2E	1E	1A	2dd]
.	1e	.	.	2cc
1r	.	1G	1r	1b
.	2d	.	.	.
=34	=34	=34	=34	=34
0r	4c	1A	1e	2a
.	4d	.	.	.
.	4e	.	.	2.cc
.	4c	.	.	.
.	1d	1G	1g	.
.	.	.	.	8b
.	.	.	.	8a
.	.	.	.	2b
=35	=35	=35	=35	=35
2.AA	1r	2F	1a	2cc
.	.	1E	.	1cc
4BB	.	.	.	.
2C	1G	.	1g	.
2GG	.	[2D	.	[2b-
=36	=36	=36	=36	=36
2D	1A	2D]	2f	2b-]
2AA	.	2C	1e	1a
1BB-	2F	1D	.	.
.	2D	.	[2d	2g
=37	=37	=37	=37	=37
0AA	0A	0E	2d]	0a
.	.	.	4c#	.
.	.	.	4B	.
.	.	.	1c#	.
=38	=38	=38	=38	=38
[0D	[0A	[0D	[0d	[0f#
=39	=39	=39	=39	=39
0D]	0A]	0D]	0d]	0f#]
==	==	==	==	==
*-	*-	*-	*-	*-
!!!CDT: 1525/^1526/-1594/2/2
!!!OCY: Italia
!!!AGN: Mass (Paraphrase)
!!!AST: renaissance, vocal
!!!ASW: Gregorian Mass
!!!PWK: Masses, Book Mantuan II
!!!RNB: Cadence finals: A
!!!YOR: Le Opere Complete, v. 19, p. 1
!!!YOO: Rome, Italy: Fratelli Scalera
!!!END: 1992//
!!!EED: John Miller
!!!YEC: Copyright 2000, John Miller
!!!YEN: United States of America
!!!YEM: Rights to all derivative electronic formats reserved.
!!!YEM: Refer to licensing agreement for further details.
!!!YEM: This file must be accompanied by the licensing agreement.
!!!YEM: A copy of the licensing agreement may be found at http://www.music-cog.ohio-state.edu/HumdrumDatabases/Palestrina/license.txt
!!!EMD: converted to Humdrum by Bret Aarden
